;FLAVOR:Marlin
;TIME:4905
;Filament used: 3.66183m
;Layer height: 0.2
;MINX:94.6
;MINY:116.1
;MINZ:0.3
;MAXX:173.9
;MAXY:183.9
;MAXZ:10.175
;Generated with Cura_SteamEngine master
M82 ;absolute extrusion mode
G21                                        ; metric values 
G90                                        ; absolute positioning 
M82                                        ; set extruder to absolute mode 
M107                                       ; start with the fan off 
M140 S60           ; Start heating the bed 
G4 S60                                     ; wait 1 minute 
M104 S210         ; start heating the hot end 
M190 S60           ; wait for bed 
M109 S210         ; wait for hotend 
M300 S1000 P500                            ; BEEP heating done 
G28 X0 Y10 Z0                              ; move X/Y to min endstops 
M420 S1                                    ; Enable leveling 
M420 Z2.0                                  ; Set leveling fading height to 2 mm 
G0 Z0.15                                   ; lift nozzle a bit 
G92 E0                                     ; zero the extruded length 
G1 X50 E25 F500                            ; Extrude 25mm of filament in a 5cm line. 
G92 E0                                     ; zero the extruded length again 
G1 E-2 F500                                ; Retract a little 
G1 X120 F4000                              ; Quickly wipe away from the filament line`
G92 E0
G92 E0
G1 F1500 E-6
;LAYER_COUNT:50
;LAYER:0
M106 S76.5
M205 X10 Y10
G1 F600 Z0.375
G0 F6000 X97.069 Y117.466 Z0.375
M205 X8 Y8
;TYPE:SKIRT
G1 F600 Z0.3
G1 F1500 E0
G1 F1200 X97.656 Y117.057 E0.03569
G1 X98.286 Y116.717 E0.07141
G1 X98.949 Y116.45 E0.10707
G1 X99.638 Y116.258 E0.14275
G1 X100.344 Y116.144 E0.17843
G1 X101.151 Y116.103 E0.21874
G1 X101.33 Y116.1 E0.22768
G1 X130.293 Y116.1 E1.67265
G1 X131.087 Y116.111 E1.71226
G1 X131.801 Y116.161 E1.74797
G1 X132.504 Y116.29 E1.78363
G1 X132.863 Y116.389 E1.80221
G1 X133.746 Y116.659 E1.84828
G1 X134.809 Y117.001 E1.90399
G1 X137.334 Y117.735 E2.03517
G1 X139.937 Y118.412 E2.16936
G1 X142.459 Y118.994 E2.29849
G1 X145.117 Y119.528 E2.43375
G1 X147.705 Y119.97 E2.56473
G1 X150.324 Y120.343 E2.69671
G1 X152.941 Y120.64 E2.82811
G1 X155.581 Y120.865 E2.9603
G1 X158.254 Y121.016 E3.09387
G1 X160.87 Y121.09 E3.22443
G1 X162.248 Y121.1 E3.29318
G1 X166.885 Y121.101 E3.52453
G1 X167.583 Y121.111 E3.55935
G1 X168.296 Y121.161 E3.59501
G1 X169 Y121.29 E3.63072
G1 X169.684 Y121.498 E3.66639
G1 X170.341 Y121.78 E3.70206
G1 X170.963 Y122.134 E3.73776
G1 X171.541 Y122.555 E3.77344
G1 X172.069 Y123.038 E3.80914
G1 X172.539 Y123.576 E3.84478
G1 X172.947 Y124.164 E3.88048
G1 X173.286 Y124.794 E3.91618
G1 X173.553 Y125.457 E3.95184
G1 X173.744 Y126.147 E3.98755
G1 X173.857 Y126.853 E4.02323
G1 X173.897 Y127.65 E4.06304
G1 X173.9 Y127.83 E4.07202
G1 X173.9 Y171.843 E6.26784
G1 X173.891 Y172.57 E6.30411
G1 X173.842 Y173.284 E6.33981
G1 X173.714 Y173.988 E6.37551
G1 X173.508 Y174.673 E6.4112
G1 X173.227 Y175.33 E6.44685
G1 X172.874 Y175.953 E6.48257
G1 X172.454 Y176.532 E6.51826
G1 X171.972 Y177.06 E6.55393
G1 X171.435 Y177.532 E6.5896
G1 X170.847 Y177.94 E6.6253
G1 X170.218 Y178.281 E6.661
G1 X169.555 Y178.549 E6.69668
G1 X168.866 Y178.741 E6.73236
G1 X168.16 Y178.856 E6.76805
G1 X167.349 Y178.897 E6.80856
G1 X167.17 Y178.9 E6.81749
G1 X162.217 Y178.9 E7.0646
G1 X159.555 Y178.938 E7.19742
G1 X156.915 Y179.05 E7.32925
G1 X154.27 Y179.237 E7.46154
G1 X151.613 Y179.501 E7.59475
G1 X148.998 Y179.835 E7.72627
G1 X146.402 Y180.243 E7.85737
G1 X143.795 Y180.728 E7.98967
G1 X141.187 Y181.289 E8.12276
G1 X138.666 Y181.906 E8.25224
G1 X136.068 Y182.621 E8.38668
G1 X133.406 Y183.438 E8.5256
G1 X132.944 Y183.582 E8.54974
G1 X132.323 Y183.75 E8.58184
G1 X131.616 Y183.86 E8.61754
G1 X130.85 Y183.897 E8.6558
G1 X130.67 Y183.9 E8.66478
G1 X101.624 Y183.899 E10.11389
G1 X100.926 Y183.89 E10.14871
G1 X100.213 Y183.841 E10.18437
G1 X99.509 Y183.713 E10.22007
G1 X98.824 Y183.507 E10.25576
G1 X98.167 Y183.225 E10.29143
G1 X97.545 Y182.872 E10.32711
G1 X96.966 Y182.452 E10.36279
G1 X96.437 Y181.97 E10.3985
G1 X95.966 Y181.432 E10.43417
G1 X95.558 Y180.845 E10.46983
G1 X95.218 Y180.215 E10.50555
G1 X94.95 Y179.552 E10.54123
G1 X94.758 Y178.863 E10.57691
G1 X94.644 Y178.157 E10.61259
G1 X94.602 Y177.331 E10.65385
G1 X94.6 Y177.158 E10.66248
G1 X94.601 Y123.114 E13.35875
G1 X94.61 Y122.425 E13.39313
G1 X94.659 Y121.712 E13.42878
G1 X94.787 Y121.008 E13.46448
G1 X94.994 Y120.323 E13.50018
G1 X95.275 Y119.666 E13.53583
G1 X95.628 Y119.044 E13.57151
G1 X96.049 Y118.465 E13.60723
G1 X96.531 Y117.937 E13.6429
G1 X97.069 Y117.466 E13.67857
M205 X10 Y10
G0 F6000 X97.456 Y117.674
M205 X8 Y8
G1 F1200 X98.036 Y117.297 E13.71308
G1 X98.657 Y116.989 E13.74767
G1 X99.308 Y116.755 E13.78218
G1 X99.983 Y116.597 E13.81676
G1 X100.841 Y116.511 E13.85979
G1 X101.33 Y116.5 E13.88419
G1 X130.293 Y116.5 E15.32916
G1 X131.081 Y116.511 E15.36847
G1 X131.772 Y116.56 E15.40304
G1 X132.747 Y116.771 E15.4528
G1 X133.624 Y117.039 E15.49856
G1 X134.713 Y117.389 E15.55562
G1 X137.236 Y118.123 E15.68671
G1 X139.81 Y118.793 E15.81941
G1 X142.438 Y119.398 E15.95395
G1 X145.036 Y119.92 E16.08616
G1 X147.623 Y120.362 E16.21709
G1 X150.255 Y120.737 E16.34973
G1 X152.933 Y121.041 E16.48419
G1 X155.56 Y121.265 E16.61573
G1 X158.184 Y121.414 E16.74685
G1 X160.903 Y121.491 E16.88256
G1 X162.245 Y121.5 E16.94951
G1 X166.879 Y121.501 E17.18071
G1 X167.577 Y121.511 E17.21553
G1 X168.268 Y121.56 E17.25009
G1 X168.948 Y121.69 E17.28463
G1 X169.609 Y121.896 E17.31917
G1 X170.242 Y122.178 E17.35375
G1 X170.838 Y122.53 E17.38828
G1 X171.389 Y122.949 E17.42282
G1 X171.889 Y123.429 E17.45739
G1 X172.33 Y123.963 E17.49195
G1 X172.707 Y124.544 E17.5265
G1 X173.014 Y125.165 E17.56106
G1 X173.247 Y125.817 E17.5956
G1 X173.404 Y126.491 E17.63013
G1 X173.489 Y127.341 E17.67275
G1 X173.5 Y127.83 E17.69715
G1 X173.5 Y171.838 E19.89272
G1 X173.491 Y172.565 E19.92899
G1 X173.442 Y173.256 E19.96355
G1 X173.314 Y173.937 E19.99812
G1 X173.109 Y174.598 E20.03265
G1 X172.829 Y175.231 E20.06718
G1 X172.477 Y175.828 E20.10176
G1 X172.06 Y176.381 E20.13631
G1 X171.581 Y176.881 E20.17086
G1 X171.048 Y177.323 E20.2054
G1 X170.467 Y177.701 E20.23998
G1 X169.847 Y178.009 E20.27452
G1 X169.196 Y178.244 E20.30905
G1 X168.521 Y178.402 E20.34364
G1 X167.659 Y178.489 E20.38686
G1 X167.17 Y178.5 E20.41126
G1 X162.211 Y178.5 E20.65867
G1 X159.568 Y178.537 E20.79054
G1 X156.868 Y178.652 E20.92537
G1 X154.241 Y178.838 E21.05676
G1 X151.56 Y179.104 E21.19117
G1 X148.952 Y179.438 E21.32235
G1 X146.338 Y179.848 E21.45435
G1 X143.71 Y180.337 E21.58772
G1 X141.113 Y180.896 E21.72025
G1 X138.537 Y181.527 E21.85257
G1 X135.95 Y182.239 E21.98643
G1 X133.303 Y183.051 E22.12456
G1 X132.824 Y183.204 E22.14965
G1 X132.218 Y183.364 E22.18092
G1 X131.533 Y183.466 E22.21547
G1 X130.839 Y183.498 E22.25013
G1 X130.67 Y183.5 E22.25856
G1 X101.63 Y183.5 E23.70738
G1 X100.932 Y183.491 E23.7422
G1 X100.241 Y183.442 E23.77676
G1 X99.56 Y183.313 E23.81134
G1 X98.899 Y183.108 E23.84587
G1 X98.266 Y182.827 E23.88042
G1 X97.669 Y182.476 E23.91497
G1 X97.117 Y182.058 E23.94952
G1 X96.617 Y181.579 E23.98406
G1 X96.175 Y181.045 E24.01864
G1 X95.798 Y180.465 E24.05316
G1 X95.49 Y179.844 E24.08774
G1 X95.255 Y179.193 E24.12227
G1 X95.098 Y178.518 E24.15684
G1 X95.011 Y177.653 E24.20022
G1 X95 Y177.158 E24.22492
G1 X95.001 Y123.12 E26.92089
G1 X95.01 Y122.431 E26.95526
G1 X95.059 Y121.74 E26.98982
G1 X95.187 Y121.059 E27.02439
G1 X95.393 Y120.398 E27.05894
G1 X95.673 Y119.765 E27.09347
G1 X96.025 Y119.168 E27.12804
G1 X96.443 Y118.616 E27.16259
G1 X96.922 Y118.116 E27.19713
G1 X97.456 Y117.674 E27.23172
M205 X10 Y10
G0 F6000 X97.312 Y118.302
M205 X8 Y8
G1 F1200 X97.84 Y117.892 E27.26507
G1 X98.414 Y117.547 E27.29848
G1 X99.024 Y117.273 E27.33184
G1 X99.663 Y117.073 E27.36525
G1 X100.321 Y116.951 E27.39863
G1 X100.852 Y116.911 E27.4252
G1 X101.33 Y116.9 E27.44905
G1 X130.373 Y116.901 E28.89802
G1 X131.076 Y116.911 E28.93309
G1 X131.743 Y116.96 E28.96646
G1 X132.63 Y117.154 E29.01176
G1 X133.501 Y117.42 E29.05719
G1 X134.584 Y117.768 E29.11394
G1 X137.129 Y118.509 E29.24619
G1 X139.725 Y119.184 E29.38001
G1 X142.334 Y119.785 E29.51358
G1 X144.968 Y120.314 E29.64762
G1 X147.565 Y120.758 E29.77906
G1 X150.225 Y121.137 E29.91311
G1 X152.855 Y121.435 E30.04516
G1 X155.537 Y121.664 E30.17945
G1 X158.187 Y121.814 E30.31187
G1 X160.888 Y121.89 E30.44668
G1 X162.242 Y121.9 E30.51423
G1 X166.873 Y121.901 E30.74527
G1 X167.571 Y121.911 E30.7801
G1 X168.238 Y121.96 E30.81347
G1 X168.895 Y122.089 E30.84687
G1 X169.531 Y122.295 E30.88023
G1 X170.139 Y122.576 E30.91364
G1 X170.708 Y122.926 E30.94697
G1 X171.232 Y123.343 E30.98038
G1 X171.702 Y123.819 E31.01375
G1 X172.112 Y124.347 E31.0471
G1 X172.457 Y124.921 E31.08052
G1 X172.73 Y125.532 E31.1139
G1 X172.928 Y126.171 E31.14728
G1 X173.049 Y126.829 E31.18066
G1 X173.089 Y127.353 E31.20688
G1 X173.1 Y127.83 E31.23068
G1 X173.1 Y171.833 E33.426
G1 X173.091 Y172.56 E33.46227
G1 X173.042 Y173.228 E33.49569
G1 X172.915 Y173.884 E33.52902
G1 X172.71 Y174.521 E33.56241
G1 X172.431 Y175.129 E33.59578
G1 X172.081 Y175.699 E33.62915
G1 X171.665 Y176.224 E33.66257
G1 X171.19 Y176.695 E33.69594
G1 X170.663 Y177.106 E33.72929
G1 X170.09 Y177.452 E33.76268
G1 X169.48 Y177.726 E33.79604
G1 X168.841 Y177.926 E33.82945
G1 X168.183 Y178.048 E33.86284
G1 X167.648 Y178.089 E33.8896
G1 X167.17 Y178.1 E33.91346
G1 X162.205 Y178.1 E34.16116
G1 X159.545 Y178.138 E34.29389
G1 X156.859 Y178.252 E34.42801
G1 X154.206 Y178.44 E34.5607
G1 X151.54 Y178.704 E34.69436
G1 X148.876 Y179.045 E34.82835
G1 X146.275 Y179.454 E34.95971
G1 X143.624 Y179.946 E35.09423
G1 X140.998 Y180.512 E35.22825
G1 X138.45 Y181.136 E35.35912
G1 X135.864 Y181.847 E35.49293
G1 X133.119 Y182.689 E35.63617
G1 X132.769 Y182.801 E35.65451
G1 X132.114 Y182.977 E35.68835
G1 X131.147 Y183.089 E35.73691
G1 X130.67 Y183.1 E35.76072
G1 X101.635 Y183.1 E37.20928
G1 X100.937 Y183.091 E37.2441
G1 X100.27 Y183.042 E37.27747
G1 X99.613 Y182.914 E37.31086
G1 X98.976 Y182.709 E37.34425
G1 X98.368 Y182.429 E37.37765
G1 X97.798 Y182.079 E37.41102
G1 X97.274 Y181.663 E37.4444
G1 X96.803 Y181.188 E37.47777
G1 X96.392 Y180.66 E37.51115
G1 X96.047 Y180.087 E37.54452
G1 X95.773 Y179.477 E37.57788
G1 X95.573 Y178.838 E37.61129
G1 X95.452 Y178.18 E37.64466
G1 X95.411 Y177.642 E37.67158
G1 X95.4 Y177.158 E37.69574
G1 X95.4 Y123.125 E40.39145
G1 X95.409 Y122.436 E40.42583
G1 X95.458 Y121.769 E40.4592
G1 X95.586 Y121.112 E40.49259
G1 X95.791 Y120.475 E40.52598
G1 X96.071 Y119.867 E40.55937
G1 X96.421 Y119.297 E40.59274
G1 X96.837 Y118.773 E40.62612
G1 X97.312 Y118.302 E40.65949
M205 X10 Y10
G0 F6000 X97.702 Y118.496
M205 X8 Y8
G1 F1200 X98.224 Y118.118 E40.69165
G1 X98.788 Y117.807 E40.72378
G1 X99.387 Y117.568 E40.75596
G1 X100.011 Y117.406 E40.78812
G1 X100.863 Y117.311 E40.83089
G1 X101.33 Y117.3 E40.85419
G1 X130.293 Y117.3 E42.29916
G1 X131.07 Y117.311 E42.33793
G1 X131.713 Y117.36 E42.37011
G1 X132.513 Y117.536 E42.41097
G1 X133.379 Y117.801 E42.45615
G1 X134.465 Y118.15 E42.51306
G1 X137.013 Y118.891 E42.64545
G1 X139.648 Y119.577 E42.78129
G1 X142.236 Y120.173 E42.91379
G1 X144.887 Y120.706 E43.04869
G1 X147.513 Y121.154 E43.1816
G1 X150.16 Y121.532 E43.315
G1 X152.848 Y121.837 E43.44996
G1 X155.481 Y122.061 E43.5818
G1 X158.187 Y122.214 E43.71702
G1 X160.874 Y122.29 E43.85113
G1 X162.24 Y122.3 E43.91928
G1 X166.867 Y122.301 E44.15012
G1 X167.565 Y122.311 E44.18495
G1 X168.208 Y122.36 E44.21712
G1 X168.84 Y122.488 E44.24929
G1 X169.451 Y122.694 E44.28146
G1 X170.032 Y122.973 E44.31361
G1 X170.574 Y123.322 E44.34578
G1 X171.068 Y123.736 E44.37793
G1 X171.508 Y124.208 E44.41012
G1 X171.886 Y124.73 E44.44228
G1 X172.196 Y125.295 E44.47443
G1 X172.434 Y125.894 E44.50659
G1 X172.596 Y126.518 E44.53875
G1 X172.689 Y127.364 E44.58121
G1 X172.7 Y127.83 E44.60447
G1 X172.7 Y171.828 E46.79954
G1 X172.691 Y172.555 E46.83581
G1 X172.643 Y173.198 E46.86798
G1 X172.516 Y173.83 E46.90014
G1 X172.311 Y174.442 E46.93234
G1 X172.033 Y175.023 E46.96447
G1 X171.685 Y175.566 E46.99665
G1 X171.272 Y176.061 E47.02881
G1 X170.801 Y176.501 E47.06097
G1 X170.279 Y176.88 E47.09315
G1 X169.715 Y177.191 E47.12528
G1 X169.116 Y177.43 E47.15746
G1 X168.493 Y177.594 E47.1896
G1 X167.637 Y177.689 E47.23257
G1 X167.17 Y177.7 E47.25587
G1 X162.2 Y177.7 E47.50383
G1 X159.522 Y177.738 E47.63745
G1 X156.849 Y177.851 E47.77092
G1 X154.175 Y178.041 E47.90466
G1 X151.483 Y178.308 E48.03963
G1 X148.834 Y178.647 E48.17287
G1 X146.17 Y179.065 E48.3074
G1 X143.579 Y179.547 E48.43888
G1 X140.924 Y180.118 E48.57437
G1 X138.354 Y180.748 E48.70638
G1 X135.746 Y181.465 E48.84132
G1 X133.002 Y182.306 E48.98451
G1 X132.579 Y182.438 E49.00662
G1 X132.01 Y182.59 E49.036
G1 X131.136 Y182.689 E49.07988
G1 X130.67 Y182.7 E49.10314
G1 X101.64 Y182.7 E50.55145
G1 X100.942 Y182.691 E50.58628
G1 X100.299 Y182.642 E50.61845
G1 X99.667 Y182.515 E50.65061
G1 X99.056 Y182.31 E50.68276
G1 X98.475 Y182.032 E50.7149
G1 X97.932 Y181.683 E50.7471
G1 X97.437 Y181.27 E50.77926
G1 X96.997 Y180.799 E50.81142
G1 X96.618 Y180.277 E50.8436
G1 X96.307 Y179.713 E50.87573
G1 X96.069 Y179.114 E50.90789
G1 X95.906 Y178.49 E50.94007
G1 X95.811 Y177.631 E50.98318
G1 X95.8 Y177.158 E51.00679
G1 X95.8 Y123.13 E53.70226
G1 X95.809 Y122.441 E53.73663
G1 X95.858 Y121.798 E53.76881
G1 X95.985 Y121.166 E53.80097
G1 X96.19 Y120.555 E53.83312
G1 X96.469 Y119.974 E53.86527
G1 X96.817 Y119.431 E53.89745
G1 X97.231 Y118.936 E53.92965
G1 X97.702 Y118.496 E53.9618
M205 X10 Y10
G1 F1500 E47.9618
G1 F600 Z0.375
;MESH:NETZ_esp32_halter.stl
G0 F6000 X110 Y134 Z0.375
M205 X8 Y8
;TYPE:WALL-INNER
G1 F600 Z0.3
G1 F1500 E53.9618
G1 F1200 X110 Y166 E55.55829
G1 X122 Y166 E56.15697
G1 X122 Y134 E57.75346
G1 X110 Y134 E58.35214
M205 X10 Y10
G0 F6000 X110.4 Y134.4
M205 X8 Y8
G1 F1200 X110.4 Y165.6 E59.90871
G1 X121.6 Y165.6 E60.46748
G1 X121.6 Y134.4 E62.02406
G1 X110.4 Y134.4 E62.58283
M205 X10 Y10
G0 F6000 X110.8 Y134.8
M205 X8 Y8
;TYPE:WALL-OUTER
G1 F1200 X110.8 Y165.2 E64.09949
G1 X121.2 Y165.2 E64.61835
G1 X121.2 Y134.8 E66.13501
G1 X110.8 Y134.8 E66.65387
M205 X10 Y10
G0 F6000 X110.8 Y135
G0 X110.36 Y135
G1 F1500 E60.65387
G1 F600 Z0.375
G0 F6000 X130 Y176.5 Z0.375
M205 X8 Y8
;TYPE:WALL-INNER
G1 F600 Z0.3
G1 F1500 E66.65387
G1 F1200 X102 Y176.5 E68.0508
G1 X102 Y123.5 E70.69498
G1 X130 Y123.5 E72.0919
G1 X130 Y176.5 E74.73608
M205 X10 Y10
G0 F6000 X130.4 Y176.9
M205 X8 Y8
G1 F1200 X101.6 Y176.9 E76.17292
G1 X101.6 Y123.1 E78.85701
G1 X130.4 Y123.1 E80.29385
G1 X130.4 Y176.9 E82.97794
M205 X10 Y10
G0 F6000 X130.8 Y177.3
M205 X8 Y8
;TYPE:WALL-OUTER
G1 F1200 X101.2 Y177.3 E84.45469
G1 X101.2 Y122.7 E87.1787
G1 X130.8 Y122.7 E88.65545
G1 X130.8 Y177.3 E91.37945
M205 X10 Y10
G0 F6000 X130.6 Y177.3
G0 X130.36 Y176.86
G0 X129.61 Y176.11
M205 X8 Y8
;TYPE:SKIN
G1 F1200 X102.39 Y176.11 E92.73747
G1 X102.39 Y123.89 E95.34273
G1 X129.61 Y123.89 E96.70074
G1 X129.61 Y176.11 E99.30601
M205 X10 Y10
G1 F1500 E93.30601
G1 F600 Z0.375
G0 F6000 X122.39 Y166.39 Z0.375
M205 X8 Y8
G1 F600 Z0.3
G1 F1500 E99.30601
G1 F1200 X122.39 Y133.61 E100.94141
G1 X109.61 Y133.61 E101.57901
G1 X109.61 Y166.39 E103.21441
G1 X122.39 Y166.39 E103.852
M205 X10 Y10
G1 F1500 E97.852
G1 F600 Z0.375
G0 F6000 X102.956 Y175.929 Z0.375
M205 X8 Y8
G1 F600 Z0.3
G1 F1500 E103.852
G1 F1200 X102.57 Y175.543 E103.87924
M205 X10 Y10
G0 F6000 X102.57 Y174.977
M205 X8 Y8
G1 F1200 X103.521 Y175.929 E103.94637
M205 X10 Y10
G0 F6000 X104.087 Y175.929
M205 X8 Y8
G1 F1200 X102.57 Y174.412 E104.0534
M205 X10 Y10
G0 F6000 X102.57 Y173.846
M205 X8 Y8
G1 F1200 X104.653 Y175.929 E104.20037
M205 X10 Y10
G0 F6000 X105.218 Y175.929
M205 X8 Y8
G1 F1200 X102.57 Y173.28 E104.38724
M205 X10 Y10
G0 F6000 X102.57 Y172.715
M205 X8 Y8
G1 F1200 X105.784 Y175.929 E104.614
M205 X10 Y10
G0 F6000 X106.35 Y175.929
M205 X8 Y8
G1 F1200 X102.57 Y172.149 E104.8807
M205 X10 Y10
G0 F6000 X102.57 Y171.583
M205 X8 Y8
G1 F1200 X106.915 Y175.929 E105.1873
M205 X10 Y10
G0 F6000 X107.481 Y175.929
M205 X8 Y8
