; generated by PrusaSlicer 2.4.2 on 2022-07-15 at 17:54:21 UTC

; 

; external perimeters extrusion width = 0.45mm
; perimeters extrusion width = 0.45mm
; infill extrusion width = 0.45mm
; solid infill extrusion width = 0.45mm
; top infill extrusion width = 0.40mm
; support material extrusion width = 0.35mm
; first layer extrusion width = 0.42mm

M107
M190 S60 ; set bed temperature and wait for it to be reached
M104 S205 ; set temperature
;TYPE:Custom
G28 ; home all axes
G1 Z5 F5000 ; lift nozzle
M109 S205 ; set temperature and wait for it to be reached
G21 ; set units to millimeters
G90 ; use absolute coordinates
M82 ; use absolute distances for extrusion
G92 E0
; Filament gcode
M107
;LAYER_CHANGE
;Z:0.25
;HEIGHT:0.25
G1 Z.25 F7800
G1 E-2 F2400
G92 E0
G1 X100.172 Y70.851 F7800
G1 E2 F2400
;TYPE:Skirt/Brim
;WIDTH:0.42
G1 F1800
G1 X101.915 Y69.431 E2.08559
G1 X105 Y68.634 E2.20694
G1 X195 Y68.634 E5.63392
G1 X197.213 Y69.031 E5.71952
G1 X199.149 Y70.172 E5.80511
G1 X200.569 Y71.915 E5.89071
G1 X201.366 Y75 E6.01205
G1 X201.366 Y225 E11.72369
G1 X200.969 Y227.213 E11.80929
G1 X199.828 Y229.149 E11.89488
G1 X198.085 Y230.569 E11.98048
G1 X195 Y231.366 E12.10182
G1 X105 Y231.366 E15.52881
G1 X102.787 Y230.969 E15.6144
G1 X100.851 Y229.828 E15.7
G1 X99.431 Y228.085 E15.78559
G1 X98.634 Y225 E15.90693
G1 X98.634 Y75 E21.61857
G1 X99.031 Y72.787 E21.70417
G1 X100.141 Y70.902 E21.78748
G1 E19.78748 F2400
G92 E0
G1 X171.065 Y211.565 F7800
G1 E2 F2400
;TYPE:Support material
G1 F1800
G1 X128.935 Y211.565 E3.60421
G1 X128.935 Y179.435 E4.82764
G1 X171.065 Y179.435 E6.43185
G1 X171.065 Y211.51 E7.65319
G1 E5.65319 F2400
G92 E0
G1 X136.101 Y183.821 F7800
G1 E2 F2400
G1 F1800
G1 X136.101 Y206.005 E2.84471
G1 X163.899 Y206.005 E3.90319
G1 X163.899 Y183.821 E4.7479
G1 X136.156 Y183.821 E5.8043
G1 E3.8043 F2400
G92 E0
G1 X170.353 Y211.4 F7800
G1 E2 F2400
G1 F1800
G1 X170.353 Y179.765 E3.2046
G1 X169.946 Y179.765 E3.2201
G1 X169.946 Y211.235 E4.41843
G1 X169.539 Y211.235 E4.43392
G1 X169.539 Y179.765 E5.63225
G1 X169.132 Y179.765 E5.64775
G1 X169.132 Y211.235 E6.84607
G1 X168.725 Y211.235 E6.86157
G1 X168.725 Y179.765 E8.0599
G1 X168.317 Y179.765 E8.0754
G1 X168.317 Y211.235 E9.27372
G1 X167.91 Y211.235 E9.28922
G1 X167.91 Y179.765 E10.48754
G1 X167.503 Y179.765 E10.50304
G1 X167.503 Y211.235 E11.70137
G1 X167.096 Y211.235 E11.71687
G1 X167.096 Y179.765 E12.91519
G1 X166.689 Y179.765 E12.93069
G1 X166.689 Y211.235 E14.12902
G1 X166.282 Y211.235 E14.14452
G1 X166.282 Y179.765 E15.34284
G1 X165.875 Y179.765 E15.35834
G1 X165.875 Y211.235 E16.55666
G1 X165.468 Y211.235 E16.57216
G1 X165.468 Y179.765 E17.77049
G1 X165.061 Y179.765 E17.78599
G1 X165.061 Y211.235 E18.98431
G1 X164.654 Y211.235 E18.99981
G1 X164.654 Y179.765 E20.19813
G1 X164.247 Y179.765 E20.21363
G1 X164.247 Y211.235 E21.41196
G1 X163.84 Y211.235 E21.42746
G1 X163.84 Y206.335 E21.61405
G1 X163.433 Y206.335 E21.62955
G1 X163.433 Y211.235 E21.81615
G1 X163.026 Y211.235 E21.83164
G1 X163.026 Y206.335 E22.01824
G1 X162.619 Y206.335 E22.03374
G1 X162.619 Y211.235 E22.22033
G1 X162.212 Y211.235 E22.23583
G1 X162.212 Y206.335 E22.42242
G1 X161.805 Y206.335 E22.43792
G1 X161.805 Y211.235 E22.62452
G1 X161.398 Y211.235 E22.64002
G1 X161.398 Y206.335 E22.82661
G1 X160.99 Y206.335 E22.84211
G1 X160.99 Y211.235 E23.0287
G1 X160.583 Y211.235 E23.0442
G1 X160.583 Y206.335 E23.2308
G1 X160.176 Y206.335 E23.2463
G1 X160.176 Y211.235 E23.43289
G1 X159.769 Y211.235 E23.44839
G1 X159.769 Y206.335 E23.63498
G1 X159.362 Y206.335 E23.65048
G1 X159.362 Y211.235 E23.83708
G1 X158.955 Y211.235 E23.85258
G1 X158.955 Y206.335 E24.03917
G1 X158.548 Y206.335 E24.05467
G1 X158.548 Y211.235 E24.24126
G1 X158.141 Y211.235 E24.25676
G1 X158.141 Y206.335 E24.44336
G1 X157.734 Y206.335 E24.45886
G1 X157.734 Y211.235 E24.64545
G1 X157.327 Y211.235 E24.66095
G1 X157.327 Y206.335 E24.84754
G1 X156.92 Y206.335 E24.86304
G1 X156.92 Y211.235 E25.04964
G1 X156.513 Y211.235 E25.06514
G1 X156.513 Y206.335 E25.25173
G1 X156.106 Y206.335 E25.26723
G1 X156.106 Y211.235 E25.45382
G1 X155.699 Y211.235 E25.46932
G1 X155.699 Y206.335 E25.65592
G1 X155.292 Y206.335 E25.67142
G1 X155.292 Y211.235 E25.85801
G1 X154.885 Y211.235 E25.87351
G1 X154.885 Y206.335 E26.0601
G1 X154.478 Y206.335 E26.0756
G1 X154.478 Y211.235 E26.2622
G1 X154.071 Y211.235 E26.2777
G1 X154.071 Y206.335 E26.46429
G1 X153.663 Y206.335 E26.47979
G1 X153.663 Y211.235 E26.66638
G1 X153.256 Y211.235 E26.68188
G1 X153.256 Y206.335 E26.86848
G1 X152.849 Y206.335 E26.88397
G1 X152.849 Y211.235 E27.07057
G1 X152.442 Y211.235 E27.08607
G1 X152.442 Y206.335 E27.27266
G1 X152.035 Y206.335 E27.28816
G1 X152.035 Y211.235 E27.47475
G1 X151.628 Y211.235 E27.49025
G1 X151.628 Y206.335 E27.67685
G1 X151.221 Y206.335 E27.69235
G1 X151.221 Y211.235 E27.87894
G1 X150.814 Y211.235 E27.89444
G1 X150.814 Y206.335 E28.08103
G1 X150.407 Y206.335 E28.09653
G1 X150.407 Y211.235 E28.28313
G1 X150 Y211.235 E28.29863
G1 X150 Y206.335 E28.48522
G1 X149.593 Y206.335 E28.50072
G1 X149.593 Y211.235 E28.68731
G1 X149.186 Y211.235 E28.70281
G1 X149.186 Y206.335 E28.88941
G1 X148.779 Y206.335 E28.90491
G1 X148.779 Y211.235 E29.0915
G1 X148.372 Y211.235 E29.107
G1 X148.372 Y206.335 E29.29359
G1 X147.965 Y206.335 E29.30909
G1 X147.965 Y211.235 E29.49569
G1 X147.558 Y211.235 E29.51119
G1 X147.558 Y206.335 E29.69778
G1 X147.151 Y206.335 E29.71328
G1 X147.151 Y211.235 E29.89987
G1 X146.744 Y211.235 E29.91537
G1 X146.744 Y206.335 E30.10197
G1 X146.337 Y206.335 E30.11747
G1 X146.337 Y211.235 E30.30406
G1 X145.929 Y211.235 E30.31956
G1 X145.929 Y206.335 E30.50615
G1 X145.522 Y206.335 E30.52165
G1 X145.522 Y211.235 E30.70825
G1 X145.115 Y211.235 E30.72375
G1 X145.115 Y206.335 E30.91034
G1 X144.708 Y206.335 E30.92584
G1 X144.708 Y211.235 E31.11243
G1 X144.301 Y211.235 E31.12793
G1 X144.301 Y206.335 E31.31453
G1 X143.894 Y206.335 E31.33003
G1 X143.894 Y211.235 E31.51662
G1 X143.487 Y211.235 E31.53212
G1 X143.487 Y206.335 E31.71871
G1 X143.08 Y206.335 E31.73421
G1 X143.08 Y211.235 E31.92081
G1 X142.673 Y211.235 E31.93631
G1 X142.673 Y206.335 E32.1229
G1 X142.266 Y206.335 E32.1384
G1 X142.266 Y211.235 E32.32499
G1 X141.859 Y211.235 E32.34049
G1 X141.859 Y206.335 E32.52709
G1 X141.452 Y206.335 E32.54258
G1 X141.452 Y211.235 E32.72918
G1 X141.045 Y211.235 E32.74468
G1 X141.045 Y206.335 E32.93127
G1 X140.638 Y206.335 E32.94677
G1 X140.638 Y211.235 E33.13336
G1 X140.231 Y211.235 E33.14886
G1 X140.231 Y206.335 E33.33546
G1 X139.824 Y206.335 E33.35096
G1 X139.824 Y211.235 E33.53755
G1 X139.417 Y211.235 E33.55305
G1 X139.417 Y206.335 E33.73964
G1 X139.01 Y206.335 E33.75514
G1 X139.01 Y211.235 E33.94174
G1 X138.602 Y211.235 E33.95724
G1 X138.602 Y206.335 E34.14383
G1 X138.195 Y206.335 E34.15933
G1 X138.195 Y211.235 E34.34592
G1 X137.788 Y211.235 E34.36142
G1 X137.788 Y206.335 E34.54802
G1 X137.381 Y206.335 E34.56352
G1 X137.381 Y211.235 E34.75011
G1 X136.974 Y211.235 E34.76561
G1 X136.974 Y206.335 E34.9522
G1 X136.567 Y206.335 E34.9677
G1 X136.567 Y211.235 E35.1543
G1 X136.16 Y211.235 E35.1698
G1 X136.16 Y206.335 E35.35639
G1 X135.771 Y206.335 E35.3712
G1 X135.771 Y183.492 E36.24102
G1 X136.16 Y183.492 E36.25582
G1 X136.16 Y179.765 E36.39774
G1 X136.567 Y179.765 E36.41324
G1 X136.567 Y183.492 E36.55515
G1 X136.974 Y183.492 E36.57065
G1 X136.974 Y179.765 E36.71256
G1 X137.381 Y179.765 E36.72806
G1 X137.381 Y183.492 E36.86997
G1 X137.788 Y183.492 E36.88547
G1 X137.788 Y179.765 E37.02738
G1 X138.195 Y179.765 E37.04288
G1 X138.195 Y183.492 E37.18479
G1 X138.602 Y183.492 E37.20029
G1 X138.602 Y179.765 E37.3422
G1 X139.01 Y179.765 E37.3577
G1 X139.01 Y183.492 E37.49961
G1 X139.417 Y183.492 E37.51511
G1 X139.417 Y179.765 E37.65702
G1 X139.824 Y179.765 E37.67252
G1 X139.824 Y183.492 E37.81443
G1 X140.231 Y183.492 E37.82993
G1 X140.231 Y179.765 E37.97184
G1 X140.638 Y179.765 E37.98734
G1 X140.638 Y183.492 E38.12925
G1 X141.045 Y183.492 E38.14475
G1 X141.045 Y179.765 E38.28666
G1 X141.452 Y179.765 E38.30216
G1 X141.452 Y183.492 E38.44407
G1 X141.859 Y183.492 E38.45957
G1 X141.859 Y179.765 E38.60149
G1 X142.266 Y179.765 E38.61699
G1 X142.266 Y183.492 E38.7589
G1 X142.673 Y183.492 E38.7744
G1 X142.673 Y179.765 E38.91631
G1 X143.08 Y179.765 E38.93181
G1 X143.08 Y183.492 E39.07372
G1 X143.487 Y183.492 E39.08922
G1 X143.487 Y179.765 E39.23113
G1 X143.894 Y179.765 E39.24663
G1 X143.894 Y183.492 E39.38854
G1 X144.301 Y183.492 E39.40404
G1 X144.301 Y179.765 E39.54595
G1 X144.708 Y179.765 E39.56145
G1 X144.708 Y183.492 E39.70336
G1 X145.115 Y183.492 E39.71886
G1 X145.115 Y179.765 E39.86077
G1 X145.522 Y179.765 E39.87627
G1 X145.522 Y183.492 E40.01818
G1 X145.929 Y183.492 E40.03368
G1 X145.929 Y179.765 E40.17559
G1 X146.337 Y179.765 E40.19109
G1 X146.337 Y183.492 E40.333
G1 X146.744 Y183.492 E40.3485
G1 X146.744 Y179.765 E40.49041
G1 X147.151 Y179.765 E40.50591
G1 X147.151 Y183.492 E40.64783
G1 X147.558 Y183.492 E40.66332
G1 X147.558 Y179.765 E40.80524
G1 X147.965 Y179.765 E40.82074
G1 X147.965 Y183.492 E40.96265
G1 X148.372 Y183.492 E40.97815
G1 X148.372 Y179.765 E41.12006
G1 X148.779 Y179.765 E41.13556
G1 X148.779 Y183.492 E41.27747
G1 X149.186 Y183.492 E41.29297
G1 X149.186 Y179.765 E41.43488
G1 X149.593 Y179.765 E41.45038
G1 X149.593 Y183.492 E41.59229
G1 X150 Y183.492 E41.60779
G1 X150 Y179.765 E41.7497
G1 X150.407 Y179.765 E41.7652
G1 X150.407 Y183.492 E41.90711
G1 X150.814 Y183.492 E41.92261
G1 X150.814 Y179.765 E42.06452
G1 X151.221 Y179.765 E42.08002
G1 X151.221 Y183.492 E42.22193
G1 X151.628 Y183.492 E42.23743
G1 X151.628 Y179.765 E42.37934
G1 X152.035 Y179.765 E42.39484
G1 X152.035 Y183.492 E42.53675
G1 X152.442 Y183.492 E42.55225
G1 X152.442 Y179.765 E42.69416
G1 X152.849 Y179.765 E42.70966
G1 X152.849 Y183.492 E42.85158
G1 X153.256 Y183.492 E42.86708
G1 X153.256 Y179.765 E43.00899
G1 X153.663 Y179.765 E43.02449
G1 X153.663 Y183.492 E43.1664
G1 X154.071 Y183.492 E43.1819
G1 X154.071 Y179.765 E43.32381
G1 X154.478 Y179.765 E43.33931
G1 X154.478 Y183.492 E43.48122
G1 X154.885 Y183.492 E43.49672
G1 X154.885 Y179.765 E43.63863
G1 X155.292 Y179.765 E43.65413
G1 X155.292 Y183.492 E43.79604
G1 X155.699 Y183.492 E43.81154
G1 X155.699 Y179.765 E43.95345
G1 X156.106 Y179.765 E43.96895
G1 X156.106 Y183.492 E44.11086
G1 X156.513 Y183.492 E44.12636
G1 X156.513 Y179.765 E44.26827
G1 X156.92 Y179.765 E44.28377
G1 X156.92 Y183.492 E44.42568
G1 X157.327 Y183.492 E44.44118
G1 X157.327 Y179.765 E44.58309
G1 X157.734 Y179.765 E44.59859
G1 X157.734 Y183.492 E44.7405
G1 X158.141 Y183.492 E44.756
G1 X158.141 Y179.765 E44.89792
G1 X158.548 Y179.765 E44.91341
G1 X158.548 Y183.492 E45.05533
G1 X158.955 Y183.492 E45.07083
G1 X158.955 Y179.765 E45.21274
G1 X159.362 Y179.765 E45.22824
G1 X159.362 Y183.492 E45.37015
G1 X159.769 Y183.492 E45.38565
G1 X159.769 Y179.765 E45.52756
G1 X160.176 Y179.765 E45.54306
G1 X160.176 Y183.492 E45.68497
G1 X160.583 Y183.492 E45.70047
G1 X160.583 Y179.765 E45.84238
G1 X160.99 Y179.765 E45.85788
G1 X160.99 Y183.492 E45.99979
G1 X161.398 Y183.492 E46.01529
G1 X161.398 Y179.765 E46.1572
G1 X161.805 Y179.765 E46.1727
G1 X161.805 Y183.492 E46.31461
G1 X162.212 Y183.492 E46.33011
G1 X162.212 Y179.765 E46.47202
G1 X162.619 Y179.765 E46.48752
G1 X162.619 Y183.492 E46.62943
G1 X163.026 Y183.492 E46.64493
G1 X163.026 Y179.765 E46.78684
G1 X163.433 Y179.765 E46.80234
G1 X163.433 Y183.492 E46.94425
G1 X163.84 Y183.492 E46.95975
G1 X163.84 Y179.6 E47.10794
G1 E45.10794 F2400
G92 E0
G1 X135.753 Y211.4 F7800
G1 E2 F2400
G1 F1800
G1 X135.753 Y179.765 E3.2046
G1 X135.346 Y179.765 E3.2201
G1 X135.346 Y211.235 E4.41843
G1 X134.939 Y211.235 E4.43392
G1 X134.939 Y179.765 E5.63225
G1 X134.532 Y179.765 E5.64775
G1 X134.532 Y211.235 E6.84607
G1 X134.125 Y211.235 E6.86157
G1 X134.125 Y179.765 E8.0599
G1 X133.718 Y179.765 E8.0754
G1 X133.718 Y211.235 E9.27372
G1 X133.311 Y211.235 E9.28922
G1 X133.311 Y179.765 E10.48754
G1 X132.904 Y179.765 E10.50304
G1 X132.904 Y211.235 E11.70137
G1 X132.497 Y211.235 E11.71687
G1 X132.497 Y179.765 E12.91519
G1 X132.09 Y179.765 E12.93069
G1 X132.09 Y211.235 E14.12902
G1 X131.683 Y211.235 E14.14452
G1 X131.683 Y179.765 E15.34284
G1 X131.275 Y179.765 E15.35834
G1 X131.275 Y211.235 E16.55666
G1 X130.868 Y211.235 E16.57216
G1 X130.868 Y179.765 E17.77049
G1 X130.461 Y179.765 E17.78599
G1 X130.461 Y211.235 E18.98431
G1 X130.054 Y211.235 E18.99981
G1 X130.054 Y179.765 E20.19813
G1 X129.647 Y179.765 E20.21363
G1 X129.647 Y211.4 E21.41824
G1 E19.41824 F2400
G92 E0
G1 X172.643 Y177.857 F7800
G1 E2 F2400
;TYPE:Perimeter
G1 F1800
G1 X172.643 Y213.143 E3.34358
G1 X127.357 Y213.143 E5.06794
G1 X127.357 Y177.857 E6.41153
G1 X172.583 Y177.857 E8.1336
G1 X172.276 Y178.224 F7800
G1 F1800
G1 X172.276 Y212.776 E9.44929
G1 X127.724 Y212.776 E11.14575
G1 X127.724 Y178.224 E12.46143
G1 X172.216 Y178.224 E14.15561
G1 X171.91 Y178.59 F7800
;TYPE:External perimeter
G1 F1800
G1 X171.91 Y212.41 E15.44339
G1 X128.09 Y212.41 E17.11195
G1 X128.09 Y178.59 E18.39974
G1 X171.85 Y178.59 E20.06601
G1 X172.3 Y178.503 F7800
G1 E18.06601 F2400
G92 E0
G1 X163.143 Y98.143 F7800
G1 E2 F2400
;TYPE:Perimeter
G1 F1800
G1 X135.857 Y98.143 E3.03896
G1 X135.857 Y87.857 E3.43061
G1 X163.143 Y87.857 E4.46957
G1 X163.143 Y98.083 E4.85893
G1 X162.776 Y97.776 F7800
G1 F1800
G1 X136.224 Y97.776 E5.86999
G1 X136.224 Y88.224 E6.23373
G1 X162.776 Y88.224 E7.2448
G1 X162.776 Y97.716 E7.60626
G1 X162.41 Y97.41 F7800
;TYPE:External perimeter
G1 F1800
G1 X136.59 Y97.41 E8.58942
G1 X136.59 Y88.59 E8.92527
G1 X162.41 Y88.59 E9.90843
G1 X162.41 Y97.35 E10.24199
G1 X162.571 Y97.776 F7800
G1 E8.24199 F2400
G92 E0
G1 X193.857 Y76.143 F7800
G1 E2 F2400
;TYPE:Perimeter
G1 F1800
G1 X193.857 Y223.857 E7.62462
G1 X106.143 Y223.857 E10.96458
G1 X106.143 Y76.143 E16.5892
G1 X193.797 Y76.143 E19.92688
G1 X194.224 Y75.776 F7800
G1 F1800
G1 X194.224 Y224.224 E25.5794
G1 X105.776 Y224.224 E28.94726
G1 X105.776 Y75.776 E34.59978
G1 X194.164 Y75.776 E37.96535
G1 X194.59 Y75.41 F7800
;TYPE:External perimeter
G1 F1800
G1 X194.59 Y224.59 E43.64577
G1 X105.41 Y224.59 E47.04153
G1 X105.41 Y75.41 E52.72195
G1 X194.53 Y75.41 E56.11543
G1 X194.519 Y75.804 F7800
G1 X193.006 Y76.253
;TYPE:Solid infill
;WIDTH:0.420569
G1 F1800
G1 X193.583 Y76.83 E56.14654
G1 X193.583 Y77.348 E56.16633
G1 X192.652 Y76.417 E56.21654
G1 X192.133 Y76.417 E56.23633
G1 X193.583 Y77.867 E56.31453
G1 X193.583 Y78.386 E56.33432
G1 X191.614 Y76.417 E56.4405
G1 X191.095 Y76.417 E56.46029
G1 X193.583 Y78.905 E56.59446
G1 X193.583 Y79.424 E56.61425
G1 X190.576 Y76.417 E56.77641
G1 X190.057 Y76.417 E56.79619
G1 X193.583 Y79.943 E56.98634
G1 X193.583 Y80.462 E57.00613
G1 X189.538 Y76.417 E57.22425
G1 X189.019 Y76.417 E57.24404
G1 X193.583 Y80.981 E57.49016
G1 X193.583 Y81.5 E57.50995
G1 X188.5 Y76.417 E57.78405
G1 X187.981 Y76.417 E57.80384
G1 X193.583 Y82.019 E58.10592
G1 X193.583 Y82.537 E58.12571
G1 X187.463 Y76.417 E58.45579
G1 X186.944 Y76.417 E58.47558
G1 X193.583 Y83.056 E58.83363
G1 X193.583 Y83.575 E58.85342
G1 X186.425 Y76.417 E59.23947
G1 X185.906 Y76.417 E59.25926
G1 X193.583 Y84.094 E59.67329
G1 X193.583 Y84.613 E59.69308
G1 X185.387 Y76.417 E60.1351
G1 X184.868 Y76.417 E60.15489
G1 X193.583 Y85.132 E60.62489
G1 X193.583 Y85.651 E60.64468
G1 X184.349 Y76.417 E61.14267
G1 X183.83 Y76.417 E61.16246
G1 X193.583 Y86.17 E61.68844
G1 X193.583 Y86.689 E61.70823
G1 X183.311 Y76.417 E62.26219
G1 X182.792 Y76.417 E62.28198
G1 X193.583 Y87.208 E62.86393
G1 X193.583 Y87.726 E62.88372
G1 X182.274 Y76.417 E63.49365
G1 X181.755 Y76.417 E63.51344
G1 X193.583 Y88.245 E64.15136
G1 X193.583 Y88.764 E64.17115
G1 X181.236 Y76.417 E64.83706
G1 X180.717 Y76.417 E64.85685
G1 X193.583 Y89.283 E65.55074
G1 X193.583 Y89.802 E65.57053
G1 X180.198 Y76.417 E66.29241
G1 X179.679 Y76.417 E66.3122
G1 X193.583 Y90.321 E67.06207
G1 X193.583 Y90.84 E67.08186
G1 X179.16 Y76.417 E67.85971
G1 X178.641 Y76.417 E67.8795
G1 X193.583 Y91.359 E68.68534
G1 X193.583 Y91.878 E68.70513
G1 X178.122 Y76.417 E69.53896
G1 X177.603 Y76.417 E69.55874
G1 X193.583 Y92.397 E70.42056
G1 X193.583 Y92.915 E70.44035
G1 X177.085 Y76.417 E71.33014
